icons/midnadark/actions/24/milestone.svg

<?xml version="1.0" encoding="UTF-8" standalone="no"?>
<!-- Created with Inkscape (http://www.inkscape.org/) -->

<svg
   xmlns:sketch="http://www.bohemiancoding.com/sketch/ns"
   xmlns:dc="http://purl.org/dc/elements/1.1/"
   xmlns:cc="http://creativecommons.org/ns#"
   xmlns:rdf="http://www.w3.org/1999/02/22-rdf-syntax-ns#"
   xmlns:svg="http://www.w3.org/2000/svg"
   xmlns="http://www.w3.org/2000/svg"
   xmlns:xlink="http://www.w3.org/1999/xlink"
   xmlns:sodipodi="http://sodipodi.sourceforge.net/DTD/sodipodi-0.dtd"
   xmlns:inkscape="http://www.inkscape.org/namespaces/inkscape"
   width="22"
   height="22"
   id="svg3869"
   version="1.1"
   inkscape:version="0.91 r13725"
   sodipodi:docname="milestone.svg">
  <defs
     id="defs3871">
    <clipPath
       id="clipPath4160"
       clipPathUnits="userSpaceOnUse">
      <rect
         y="1023.3622"
         x="7"
         height="1"
         width="1"
         id="rect4162"
         style="opacity:1;fill:#f2f2f2;fill-opacity:1;stroke:none;stroke-opacity:1" />
    </clipPath>
    <linearGradient
       gradientTransform="translate(0,-1.9999941)"
       inkscape:collect="always"
       xlink:href="#linearGradient4021-3"
       id="linearGradient4123"
       gradientUnits="userSpaceOnUse"
       x1="3"
       y1="1045.3622"
       x2="15"
       y2="1045.3622" />
    <linearGradient
       id="linearGradient4021-3">
      <stop
         id="stop4023-0"
         offset="0"
         style="stop-color:#b3b3b3;stop-opacity:1;" />
      <stop
         id="stop4025-2"
         offset="1"
         style="stop-color:#4d4d4d;stop-opacity:1;" />
    </linearGradient>
    <clipPath
       id="clipPath4160-8"
       clipPathUnits="userSpaceOnUse">
      <rect
         y="1023.3622"
         x="7"
         height="1"
         width="1"
         id="rect4162-9"
         style="opacity:1;fill:#f2f2f2;fill-opacity:1;stroke:none;stroke-opacity:1" />
    </clipPath>
  </defs>
  <sodipodi:namedview
     id="base"
     pagecolor="#ffffff"
     bordercolor="#666666"
     borderopacity="1.0"
     inkscape:pageopacity="0.0"
     inkscape:pageshadow="2"
     inkscape:zoom="15.999999"
     inkscape:cx="-1.8750029"
     inkscape:cy="9.4168705"
     inkscape:document-units="px"
     inkscape:current-layer="layer1"
     showgrid="true"
     fit-margin-top="0"
     fit-margin-left="0"
     fit-margin-right="0"
     fit-margin-bottom="0"
     inkscape:window-width="1366"
     inkscape:window-height="633"
     inkscape:window-x="0"
     inkscape:window-y="33"
     inkscape:window-maximized="1"
     inkscape:showpageshadow="false"
     inkscape:snap-bbox="true"
     inkscape:object-nodes="true">
    <inkscape:grid
       type="xygrid"
       id="grid4132" />
    <sodipodi:guide
       position="4,18"
       orientation="18,0"
       id="guide4138" />
    <sodipodi:guide
       position="5,3"
       orientation="0,18"
       id="guide4140" />
    <sodipodi:guide
       position="20,2.0000174"
       orientation="-18,0"
       id="guide4142" />
    <sodipodi:guide
       position="2,21"
       orientation="0,-18"
       id="guide4144" />
    <sodipodi:guide
       position="3,19.000017"
       orientation="16,0"
       id="guide4146" />
    <sodipodi:guide
       position="2,4"
       orientation="0,16"
       id="guide4148" />
    <sodipodi:guide
       position="21,20"
       orientation="-16,0"
       id="guide4150" />
    <sodipodi:guide
       position="2,20"
       orientation="0,-16"
       id="guide4152" />
  </sodipodi:namedview>
  <metadata
     id="metadata3874">
    <rdf:RDF>
      <cc:Work
         rdf:about="">
        <dc:format>image/svg+xml</dc:format>
        <dc:type
           rdf:resource="http://purl.org/dc/dcmitype/StillImage" />
        <dc:title />
      </cc:Work>
    </rdf:RDF>
  </metadata>
  <g
     inkscape:label="Capa 1"
     inkscape:groupmode="layer"
     id="layer1"
     transform="translate(-326,-534.3622)">
    <g
       id="g4155"
       transform="translate(-1,1)"
       style="fill:#ffffff;fill-opacity:1">
      <g
         inkscape:label="Capa 1"
         id="layer1-4"
         transform="translate(1,-0.99998262)"
         style="fill:#ffffff;fill-opacity:1">
        <path
           style="opacity:1;fill:#ffffff;fill-opacity:1;fill-rule:evenodd;stroke:none;stroke-width:0.19848719;stroke-linecap:square;stroke-linejoin:miter;stroke-miterlimit:4;stroke-dasharray:none;stroke-dashoffset:0;stroke-opacity:1"
           d="M 4.0117188 3 C 3.4507598 3 3 3.4507598 3 4.0117188 L 3 17.988281 C 3 18.54924 3.4507598 19 4.0117188 19 L 17.988281 19 C 18.54924 19 19 18.54924 19 17.988281 L 19 4.0117188 C 19 3.4507598 18.54924 3 17.988281 3 L 4.0117188 3 z M 11 6.2304688 C 11.12016 6.2304688 11.218872 6.314245 11.294922 6.4785156 L 12.646484 9.2128906 L 15.664062 9.6503906 C 15.888598 9.6864608 16 9.7794704 16 9.9277344 C 16 10.015881 15.948051 10.11069 15.84375 10.214844 L 13.662109 12.34375 L 14.179688 15.347656 C 14.183744 15.37576 14.185547 15.416673 14.185547 15.46875 C 14.185547 15.552914 14.165018 15.623515 14.123047 15.681641 C 14.081002 15.73984 14.019781 15.769531 13.939453 15.769531 C 13.863477 15.769531 13.783456 15.745359 13.699219 15.697266 L 11 14.277344 L 8.3007812 15.697266 C 8.2126343 15.745433 8.1326873 15.769531 8.0605469 15.769531 C 7.9763831 15.769531 7.9131388 15.739766 7.8710938 15.681641 C 7.8290487 15.623441 7.8085938 15.552914 7.8085938 15.46875 C 7.8085937 15.444777 7.8122723 15.40379 7.8203125 15.347656 L 8.3378906 12.34375 L 6.1503906 10.214844 C 6.0502202 10.106707 6 10.011898 6 9.9277344 C 6 9.7794704 6.1116237 9.6864608 6.3359375 9.6503906 L 9.3535156 9.2128906 L 10.705078 6.4785156 C 10.781202 6.314245 10.87984 6.2304688 11 6.2304688 z "
           transform="translate(326,534.36218)"
           id="rect4144" />
      </g>
      <g
         style="fill:#ffffff;fill-opacity:1"
         inkscape:label="Capa 1"
         id="layer1-1"
         transform="matrix(0.41666667,0,0,0.41666667,171.09524,322.7797)">
        <g
           id="star60"
           sketch:type="MSLayerGroup"
           transform="matrix(0.17703162,0,0,0.17703162,388.53319,520.29086)"
           style="fill:#ffffff;fill-opacity:1" />
      </g>
    </g>
  </g>
</svg>

<svg xmlns="http://www.w3.org/2000/svg" viewBox="0 0 22 22"><defs><clipPath><path fill="#f2f2f2" d="m7 1023.36h1v1h-1z"/></clipPath><clipPath><path fill="#f2f2f2" d="m7 1023.36h1v1h-1z"/></clipPath></defs><path d="m4.01 3c-.561 0-1.012.451-1.012 1.012v13.977c0 .561.451 1.012 1.012 1.012h13.977c.561 0 1.012-.451 1.012-1.012v-13.977c0-.561-.451-1.012-1.012-1.012h-13.977m6.988 3.23c.12 0 .219.084.295.248l1.352 2.734 3.02.438c.225.036.336.129.336.277 0 .088-.052.183-.156.287l-2.182 2.129.518 3c.004.028.006.069.006.121 0 .084-.021.155-.063.213-.042.058-.103.088-.184.088-.076 0-.156-.024-.24-.072l-2.699-1.42-2.699 1.42c-.088.048-.168.072-.24.072-.084 0-.147-.03-.189-.088-.042-.058-.063-.129-.063-.213 0-.024.004-.065.012-.121l.518-3-2.188-2.129c-.1-.108-.15-.203-.15-.287 0-.148.112-.241.336-.277l3.02-.438 1.352-2.734c.076-.164.175-.248.295-.248" transform="translate(0-.002)" fill="#fff" fill-rule="evenodd"/></svg>
